X:890
T:Reel 890
M:4/4
K:Ador
L:1/8
ED|CB,A,B, CDEC|B,DG,B, D2B,D| (3GGG ED CA,A,G,|E,A,A,B, A,2:|EG|ABAG EGAG|DGED B,A,G,B,|GGAF GFEA|GEDB, A,2A,B,|CB,CD EFEC|DB,GB, DB,G,B,|A,B,CD EDED|CA,B,G, A,2|
